symbols/web/mark_as_unread/materialsymbolssharp/mark_as_unread_48px.svg

<svg xmlns="http://www.w3.org/2000/svg" height="48" width="48"><path d="M4 34.05V12.5L21.2 4l17.2 8.5v1.65h-3.5l-13.7-6.8L7 14.4v19.65ZM8.5 42V15.65H44V42Zm17.75-12.9L11.5 21.85V39H41V21.85Zm0-3.35 14.45-7.1H11.8ZM11.5 39V18.65 39Z"/></svg>

<svg xmlns="http://www.w3.org/2000/svg" height="48" width="48"><path d="M4 34.05V12.5L21.2 4L38.4 12.5V14.15H34.9L21.2 7.35L7 14.4V34.05ZM8.5 42V15.65H44V42ZM26.25 29.1 11.5 21.85V39H41V21.85ZM26.25 25.75 40.7 18.65H11.8ZM11.5 39V18.65V39Z"/></svg>
